shared/images/iconfont/47-kb-iconfont-identity-facebook-16.svg

<?xml version="1.0" encoding="UTF-8"?>
<svg width="16px" height="16px" viewBox="0 0 16 16" version="1.1" xmlns="http://www.w3.org/2000/svg" xmlns:xlink="http://www.w3.org/1999/xlink">
    <!-- Generator: sketchtool 57.1 (101010) - https://sketch.com -->
    <title>B42C0068-ACCE-47CD-8803-F96A0000D8D8</title>
    <desc>Created with sketchtool.</desc>
    <g id="Symbols" stroke="none" stroke-width="1" fill="none" fill-rule="evenodd">
        <g id="47-kb-iconfont-identity-facebook-16">
            <g>
                <rect id="icon-area" opacity="0" x="0" y="0" width="16" height="16"></rect>
                <path d="M3.00585866,1 C1.89805351,1 1,1.89706685 1,3.00587369 L1,12.9942312 C1,14.1020447 1.88655484,15.0001049 3.00591905,15.0001049 L8,15.0001049 L8,9.57851648 L6.17554601,9.57851648 L6.17554601,7.46560981 L8,7.46560981 L8,5.90741982 C8,4.09917457 9.10439764,3.11453278 10.7175085,3.11453278 C11.4901777,3.11453278 11.9656016,3.17202352 12.1591624,3.19777916 L12.1591624,5.08748777 L11.0403395,5.08801232 C10.163074,5.08801232 9.99317074,5.50487601 9.99317074,6.11666425 L9.99317074,7.46560934 L12.0854624,7.46560934 L11.8130087,9.57851601 L9.99317074,9.57851601 L9.99317074,15.0001044 L12.9923801,15.0001047 C14.101158,15.0001048 15,14.1030381 15,12.9942312 L15,3.00587369 C15,1.89806024 14.1029399,1 12.9941413,1 L3.00585866,1 Z" id="Fill-1" fill="#000000"></path>
            </g>
        </g>
    </g>
</svg>

<svg xmlns="http://www.w3.org/2000/svg" width="16" height="16" viewBox="0 0 16 16">
    <path fill="#000" fill-rule="evenodd" d="M3.006 1A2.005 2.005 0 0 0 1 3.006v9.988C1 14.102 1.887 15 3.006 15H8V9.58H6.176V7.466H8V5.907C8 4.1 9.104 3.115 10.718 3.115c.772 0 1.248.057 1.441.083v1.89H11.04c-.877 0-1.047.417-1.047 1.029v1.349h2.092l-.272 2.113h-1.82V15h3A2.006 2.006 0 0 0 15 12.994V3.006A2.005 2.005 0 0 0 12.994 1H3.006z"/>
</svg>
